src/next/cmd/sc_fontworkshapetype.fontwork-triangle-up.svg

<svg height="128" viewBox="0 0 128 128" width="128" xmlns="http://www.w3.org/2000/svg" xmlns:xlink="http://www.w3.org/1999/xlink"><linearGradient id="a" gradientUnits="userSpaceOnUse" x1="64" x2="64" y1="128" y2="0"><stop offset="0" stop-color="#fff"/><stop offset=".46428573" stop-color="#fff"/><stop offset=".78125" stop-color="#f1f1f1"/><stop offset=".90625" stop-color="#eaeaea"/><stop offset="1" stop-color="#dfdfdf"/></linearGradient><linearGradient id="b" gradientUnits="userSpaceOnUse" x1="64" x2="64" y1="128" y2="0"><stop offset="0" stop-color="#7c9fcf"/><stop offset=".5" stop-color="#7c9ece"/><stop offset="1" stop-color="#7b9dcf"/></linearGradient><path d="m64.054688.00195313a8.0008 8.0008 0 0 0 -7.210938 4.42382807l-55.94335938 111.9999988a8.0008 8.0008 0 0 0 7.15624998 11.57422h55.9726564 55.970703a8.0008 8.0008 0 0 0 7.15625-11.57812l-56-112.000005a8.0008 8.0008 0 0 0 -7.101562-4.41992187z" fill="url(#b)"/><path d="m8.0571292 120h55.9714428 55.971428l-56-112z" fill="url(#a)"/></svg>

<?xml version="1.0" encoding="UTF-8" standalone="no"?>
<svg
   xmlns:dc="http://purl.org/dc/elements/1.1/"
   xmlns:cc="http://creativecommons.org/ns#"
   xmlns:rdf="http://www.w3.org/1999/02/22-rdf-syntax-ns#"
   xmlns:svg="http://www.w3.org/2000/svg"
   xmlns="http://www.w3.org/2000/svg"
   xmlns:sodipodi="http://sodipodi.sourceforge.net/DTD/sodipodi-0.dtd"
   xmlns:inkscape="http://www.inkscape.org/namespaces/inkscape"
   height="16"
   viewBox="0 0 16 16"
   width="16"
   version="1.1"
   id="svg24"
   sodipodi:docname="sc_fontworkshapetype.fontwork-triangle-up.svg"
   inkscape:version="0.92.3 (2405546, 2018-03-11)"
   inkscape:export-filename="/home/rizmut/Dokumen/Rizmut/Github/libreoffice-style-karasa-jaga/src/next/cmd/sc_fontworkshapetype.fontwork-triangle-up.png"
   inkscape:export-xdpi="96"
   inkscape:export-ydpi="96">
  <metadata
     id="metadata30">
    <rdf:RDF>
      <cc:Work
         rdf:about="">
        <dc:format>image/svg+xml</dc:format>
        <dc:type
           rdf:resource="http://purl.org/dc/dcmitype/StillImage" />
        <dc:title></dc:title>
      </cc:Work>
    </rdf:RDF>
  </metadata>
  <defs
     id="defs28" />
  <sodipodi:namedview
     pagecolor="#ffffff"
     bordercolor="#666666"
     borderopacity="1"
     objecttolerance="10"
     gridtolerance="10"
     guidetolerance="10"
     inkscape:pageopacity="0"
     inkscape:pageshadow="2"
     inkscape:window-width="1366"
     inkscape:window-height="714"
     id="namedview26"
     showgrid="false"
     inkscape:zoom="1.84375"
     inkscape:cx="-5.6949153"
     inkscape:cy="64"
     inkscape:window-x="0"
     inkscape:window-y="28"
     inkscape:window-maximized="1"
     inkscape:current-layer="svg24" />
  <linearGradient
     id="a"
     gradientUnits="userSpaceOnUse"
     x1="64"
     x2="64"
     y1="128"
     y2="0">
    <stop
       offset="0"
       stop-color="#fff"
       id="stop2" />
    <stop
       offset=".46428573"
       stop-color="#fff"
       id="stop4" />
    <stop
       offset=".78125"
       stop-color="#f1f1f1"
       id="stop6" />
    <stop
       offset=".90625"
       stop-color="#eaeaea"
       id="stop8" />
    <stop
       offset="1"
       stop-color="#dfdfdf"
       id="stop10" />
  </linearGradient>
  <linearGradient
     id="b"
     gradientUnits="userSpaceOnUse"
     x1="64"
     x2="64"
     y1="128"
     y2="0">
    <stop
       offset="0"
       stop-color="#7c9fcf"
       id="stop13" />
    <stop
       offset=".5"
       stop-color="#7c9ece"
       id="stop15" />
    <stop
       offset="1"
       stop-color="#7b9dcf"
       id="stop17" />
  </linearGradient>
  <g
     id="g842"
     transform="matrix(0.125,0,0,0.125,-0.00366179,-1.1061084e-4)">
    <path
       id="path20"
       d="M 64.054688,0.00195313 A 8.0008,8.0008 0 0 0 56.84375,4.4257812 L 0.90039062,116.42578 A 8.0008,8.0008 0 0 0 8.0566406,128 H 64.029297 120 a 8.0008,8.0008 0 0 0 7.15625,-11.57812 l -56,-112.000005 A 8.0008,8.0008 0 0 0 64.054688,0.00195313 Z"
       style="fill:url(#b)"
       inkscape:connector-curvature="0" />
    <path
       id="path22"
       d="M 8.0571292,120 H 64.028572 120 L 64,8 Z"
       style="fill:url(#a)"
       inkscape:connector-curvature="0" />
  </g>
</svg>
